icons/empathize-line.svg

<svg xmlns="http://www.w3.org/2000/svg" width="24" height="24" fill="none"><g clip-path="url(#a)"><g><path fill="#121212" d="M18.3643 10.98C19.9263 12.541 19.9263 15.074 18.3643 16.636L12.7073 22.293C12.3173 22.683 11.6833 22.683 11.2933 22.293L5.63634 16.636C4.07434 15.074 4.07434 12.541 5.63634 10.979C7.19834 9.417 9.73134 9.417 11.2933 10.979L11.9993 11.686L12.7073 10.979C14.2693 9.417 16.8023 9.417 18.3643 10.979V10.98ZM7.05034 12.392C6.27034 13.173 6.27034 14.44 7.05034 15.221L12.0003 20.171L16.9503 15.221C17.7303 14.44 17.7303 13.173 16.9503 12.392C16.1693 11.612 14.9023 11.612 14.1203 12.394L11.9983 14.512L9.87834 12.392C9.09834 11.612 7.83134 11.612 7.05034 12.392ZM12.0003 1C14.2103 1 16.0003 2.79 16.0003 5C16.0003 7.21 14.2103 9 12.0003 9C9.79034 9 8.00034 7.21 8.00034 5C8.00034 2.79 9.79034 1 12.0003 1ZM12.0003 3C10.8953 3 10.0003 3.895 10.0003 5C10.0003 6.105 10.8953 7 12.0003 7C13.1053 7 14.0003 6.105 14.0003 5C14.0003 3.895 13.1053 3 12.0003 3Z"/></g></g><defs><clipPath id="a"><rect width="24" height="24" fill="white"/></clipPath></defs></svg>

<svg width="24" height="24" fill="none" xmlns="http://www.w3.org/2000/svg"><g clip-path="url(#a)"><path d="M18.364 10.98a4 4 0 0 1 0 5.656l-5.657 5.657a1 1 0 0 1-1.414 0l-5.657-5.657a4 4 0 0 1 5.657-5.657l.706.707.708-.707a4 4 0 0 1 5.657 0v.001ZM7.05 12.392a2.003 2.003 0 0 0 0 2.829l4.95 4.95 4.95-4.95c.78-.781.78-2.048 0-2.829a2.002 2.002 0 0 0-2.83.002l-2.122 2.118-2.12-2.12a2.001 2.001 0 0 0-2.828 0ZM12 1c2.21 0 4 1.79 4 4s-1.79 4-4 4-4-1.79-4-4 1.79-4 4-4Zm0 2a2 2 0 1 0 0 3.999A2 2 0 0 0 12 3Z" /></g><defs><clipPath id="a"><path fill="#fff" d="M0 0h24v24H0z"/></clipPath></defs></svg>
